X:67
T:Ben Hill
R:hornpipe
Z:id:hn-hornpipe-67
M:C|
K:G
(3DEF|:GFGA ~B3c|dgge dBGB|cedc BGAB|cBAG FDEF|
GFGA ~B3c|dgge dBGB|cedc BAFG|1 AGGF G2 (3DEF:|2 AGGF GBdc||
|:~B3d gfed|c2cB c2cB|AFAf fedc|(3BcB Ac B2 (3DEF|
GFGA ~B3c|dgge dBGB|cedc BAFG|1 AGGF GBdc:|2 AGGF G2||
<end>
<start>
